assets/logos/monks-technology-services.svg

<?xml version="1.0" encoding="UTF-8" standalone="no"?>
<svg
   width="150.03999"
   height="19.767593"
   viewBox="0 0 150.03999 19.767593"
   fill="none"
   version="1.1"
   id="svg24"
   sodipodi:docname="monks-technology-services.svg"
   inkscape:version="1.4 (e7c3feb1, 2024-10-09)"
   xmlns:inkscape="http://www.inkscape.org/namespaces/inkscape"
   xmlns:sodipodi="http://sodipodi.sourceforge.net/DTD/sodipodi-0.dtd"
   xmlns="http://www.w3.org/2000/svg"
   xmlns:svg="http://www.w3.org/2000/svg">
  <defs
     id="defs24" />
  <sodipodi:namedview
     id="namedview24"
     pagecolor="#ffffff"
     bordercolor="#000000"
     borderopacity="0.25"
     inkscape:showpageshadow="2"
     inkscape:pageopacity="0.0"
     inkscape:pagecheckerboard="0"
     inkscape:deskcolor="#d1d1d1"
     inkscape:zoom="5.8831284"
     inkscape:cx="63.316653"
     inkscape:cy="0.50993278"
     inkscape:window-width="1512"
     inkscape:window-height="945"
     inkscape:window-x="0"
     inkscape:window-y="37"
     inkscape:window-maximized="0"
     inkscape:current-layer="svg24" />
  <g
     id="g24"
     transform="scale(0.09883797)">
    <path
       d="m 29.8131,198.092 c -5.436,0 -10.4472,-1.365 -15.0339,-4.093 C 10.1926,191.088 6.54016,187.268 3.82216,182.539 1.27403,177.628 0,172.261 0,166.441 c 0,-5.639 1.27403,-10.915 3.82216,-15.826 2.718,-4.911 6.37044,-8.822 10.95704,-11.733 4.5867,-2.91 9.5979,-4.365 15.0339,-4.365 5.436,0 10.4473,1.455 15.0339,4.365 4.5866,2.911 8.239,6.822 10.957,11.733 2.718,4.911 4.077,10.187 4.077,15.826 0,5.639 -1.359,10.914 -4.077,15.825 -2.718,4.911 -6.3704,8.822 -10.957,11.733 -4.5866,2.728 -9.5979,4.093 -15.0339,4.093 z"
       fill="#1a1a1a"
       id="path1" />
    <path
       d="M 79.2263,194.27 V 53.4782 h 52.7457 l 1.275,18.0083 c 11.551,-14.7341 27.689,-22.1011 48.414,-22.1011 11.552,0 21.319,2.0009 29.303,6.0028 8.154,4.0018 14.695,10.0046 19.621,18.0082 6.115,-7.8217 13.59,-13.7336 22.424,-17.7354 9.003,-4.1837 19.195,-6.2756 30.577,-6.2756 11.212,0 21.234,2.0009 30.068,6.0028 8.833,4.0018 15.713,10.0046 20.64,18.0082 5.096,7.8218 7.644,17.2807 7.644,28.3766 v 92.497 h -56.059 v -84.038 c 0,-6.913 -2.038,-12.2788 -6.115,-16.0988 -3.907,-3.8199 -8.919,-5.7299 -15.034,-5.7299 -4.757,0 -9.173,1.1824 -13.25,3.5472 -4.077,2.3647 -7.305,5.7298 -9.683,10.0955 -2.209,4.184 -3.313,9.004 -3.313,14.461 v 77.763 h -56.059 v -84.038 c 0,-4.002 -0.934,-7.64 -2.803,-10.9145 -1.698,-3.4562 -4.077,-6.0938 -7.134,-7.9128 -3.058,-2.0009 -6.54,-3.0014 -10.448,-3.0014 -5.096,0 -9.682,1.1824 -13.759,3.5472 -4.077,2.3647 -7.305,5.6389 -9.683,9.8225 -2.209,4.184 -3.313,9.095 -3.313,14.734 v 77.763 z"
       fill="#1a1a1a"
       id="path2" />
    <path
       d="m 449.226,199.454 c -16.478,0 -31.597,-2.911 -45.357,-8.731 -13.76,-6.003 -24.716,-14.644 -32.87,-25.922 -8.154,-11.277 -12.231,-24.647 -12.231,-40.109 0,-15.825 4.077,-29.468 12.231,-40.9278 8.154,-11.4598 19.11,-20.1001 32.87,-25.921 13.76,-6.0028 28.879,-9.0042 45.357,-9.0042 16.648,0 31.851,3.0014 45.611,9.0042 13.76,6.0028 24.632,14.7341 32.616,26.1939 8.154,11.4598 12.231,25.0119 12.231,40.6549 0,15.28 -4.161,28.65 -12.485,40.109 -8.154,11.278 -19.111,19.919 -32.871,25.922 -13.76,5.82 -28.794,8.731 -45.102,8.731 z m -0.255,-39.018 c 6.116,0 11.806,-1.637 17.073,-4.912 5.266,-3.274 9.428,-7.639 12.485,-13.096 3.058,-5.639 4.587,-11.733 4.587,-18.282 0,-6.366 -1.529,-12.369 -4.587,-18.008 -3.057,-5.639 -7.219,-10.0954 -12.485,-13.3697 -5.267,-3.2742 -10.957,-4.9113 -17.073,-4.9113 -6.115,0 -11.806,1.6371 -17.072,4.9113 -5.097,3.2743 -9.174,7.7307 -12.231,13.3697 -2.888,5.457 -4.332,11.46 -4.332,18.008 0,6.549 1.444,12.643 4.332,18.282 3.057,5.457 7.134,9.822 12.231,13.096 5.266,3.275 10.957,4.912 17.072,4.912 z"
       fill="#1a1a1a"
       id="path3" />
    <path
       d="M 556.502,194.27 V 53.4779 h 52.491 l 2.039,19.3726 c 11.551,-15.4617 28.369,-23.1925 50.453,-23.1925 11.381,0 21.489,2.0009 30.322,6.0027 9.004,3.8199 16.054,9.6408 21.15,17.4626 5.266,7.6399 7.899,16.9169 7.899,27.8307 v 93.316 h -56.059 v -82.129 c 0,-6.912 -2.038,-12.3691 -6.115,-16.3709 -4.077,-4.0019 -9.683,-6.0028 -16.818,-6.0028 -5.606,0 -10.617,1.1824 -15.034,3.5471 -4.417,2.3648 -7.899,5.7299 -10.447,10.0956 -2.548,4.366 -3.822,9.641 -3.822,15.825 v 75.035 z"
       fill="#1a1a1a"
       id="path4" />
    <path
       d="m 913.572,53.4791 -64.212,56.7539 69.818,84.038 h -68.289 l -27.52,-37.926 -11.976,-16.917 -13.505,10.914 v 43.929 H 741.829 V 0 h 56.059 v 71.2146 l -0.51,29.7414 23.188,-23.4658 25.481,-24.0111 z"
       fill="#1a1a1a"
       id="path5" />
    <path
       d="m 991.46,200 c -49.264,0 -75.851,-16.007 -79.758,-48.022 l 53.258,-1.364 c 1.189,5.82 3.907,10.186 8.154,13.097 4.415,2.728 11.381,4.092 20.894,4.092 9.172,0 15.972,-1.091 20.382,-3.274 4.42,-2.365 6.63,-5.73 6.63,-10.095 0,-3.639 -1.53,-6.367 -4.59,-8.186 -2.89,-2.001 -7.3,-3.274 -13.25,-3.82 l -30.066,-3.001 c -19.706,-2.001 -34.232,-6.549 -43.575,-13.643 -9.173,-7.276 -13.758,-17.19 -13.758,-29.7409 0,-14.916 6.2,-26.5577 18.601,-34.9252 12.571,-8.5494 31.427,-12.8241 56.568,-12.8241 23.27,0 41.28,3.729 54.02,11.187 12.91,7.276 20.56,18.0992 22.93,32.4695 l -51.98,1.3642 c -1.02,-5.0932 -3.57,-8.7313 -7.64,-10.9141 -3.91,-2.1828 -10.365,-3.2742 -19.368,-3.2742 -7.305,0 -13.082,1.0004 -17.329,3.0013 -4.077,1.819 -6.114,4.5476 -6.114,8.1856 0,3.4562 1.529,6.0937 4.587,7.9128 3.058,1.6371 7.897,2.8191 14.524,3.5471 l 29.3,2.728 c 39.41,3.639 59.12,18.373 59.12,44.203 0,17.644 -6.96,30.65 -20.89,39.018 -13.94,8.185 -34.15,12.278 -60.65,12.278 z"
       fill="#1a1a1a"
       id="path6" />
    <rect
       x="1111.04"
       y="59"
       width="406"
       height="140"
       rx="70"
       stroke="#1a1a1a"
       stroke-width="2"
       id="rect6" />
    <path
       d="m 1380.52,177.223 c -7.7,0 -12.22,-3.012 -12.61,-9.873 h 5.58 c 0.45,4.016 2.4,5.466 7.08,5.466 4.52,0 6.36,-1.45 6.36,-4.016 0,-2.287 -1.39,-3.403 -6.13,-4.239 l -2.96,-0.558 c -6.19,-1.116 -9.15,-3.905 -9.15,-8.59 0,-5.076 4.02,-8.367 11.1,-8.367 8.2,0 11.99,3.57 12.16,9.65 h -5.41 c -0.22,-4.128 -2.68,-5.299 -6.75,-5.299 -3.62,0 -5.58,1.45 -5.58,3.848 0,2.455 1.96,3.403 5.36,4.072 l 3.01,0.502 c 7.03,1.339 9.99,3.793 9.99,8.59 0,5.634 -4.52,8.814 -12.05,8.814 z"
       fill="#1a1a1a"
       id="path7" />
    <path
       d="m 1351.53,177.167 c -8.15,0 -13.78,-5.801 -13.78,-15.061 0,-9.036 5.46,-15.06 13.66,-15.06 8.71,0 13.67,6.638 13.67,15.283 v 1.618 h -21.7 c 0.5,5.857 3.68,8.534 8.26,8.534 3.73,0 6.13,-1.896 7.14,-4.797 h 5.57 c -1.39,5.578 -5.91,9.483 -12.82,9.483 z m -8.04,-17.626 h 15.84 c -0.5,-4.463 -3.23,-7.81 -7.92,-7.81 -4.18,0 -7.25,2.566 -7.92,7.81 z"
       fill="#1a1a1a"
       id="path8" />
    <path
       d="m 1321.78,177.167 c -8.14,0 -13.72,-5.857 -13.72,-15.061 0,-9.203 5.47,-15.06 13.72,-15.06 7.14,0 11.94,4.183 12.83,10.71 h -5.69 c -0.78,-4.017 -3.73,-5.857 -7.14,-5.857 -4.57,0 -7.92,3.235 -7.92,10.207 0,6.973 3.46,10.208 7.92,10.208 3.46,0 6.53,-1.896 7.2,-6.08 h 5.69 c -0.89,6.805 -6.03,10.933 -12.89,10.933 z"
       fill="#1a1a1a"
       id="path9" />
    <path
       d="m 1303.21,144.031 h -5.74 v -5.913 h 5.74 z m -0.05,32.463 h -5.58 v -28.782 h 5.58 z"
       fill="#1a1a1a"
       id="path10" />
    <path
       d="m 1284.76,158.254 3.85,-10.542 h 5.91 l -11.04,28.782 h -6.19 l -10.99,-28.782 h 6.02 l 3.91,10.542 c 1.39,4.128 2.95,8.646 4.24,12.83 1.34,-4.184 2.9,-8.702 4.29,-12.83 z"
       fill="#1a1a1a"
       id="path11" />
    <path
       d="m 1262.89,147.262 c 0.5,0 1,0 1.62,0.055 v 5.3 h -1.4 c -5.52,0 -8.98,2.733 -8.98,8.255 v 15.618 h -5.58 v -28.782 h 5.36 v 5.132 c 1.56,-3.124 4.41,-5.578 8.98,-5.578 z"
       fill="#1a1a1a"
       id="path12" />
    <path
       d="m 1230.05,177.167 c -8.14,0 -13.77,-5.801 -13.77,-15.061 0,-9.036 5.46,-15.06 13.66,-15.06 8.7,0 13.67,6.638 13.67,15.283 v 1.618 h -21.7 c 0.5,5.857 3.68,8.534 8.25,8.534 3.74,0 6.14,-1.896 7.14,-4.797 h 5.58 c -1.39,5.578 -5.91,9.483 -12.83,9.483 z m -8.03,-17.626 h 15.84 c -0.5,-4.463 -3.23,-7.81 -7.92,-7.81 -4.18,0 -7.25,2.566 -7.92,7.81 z"
       fill="#1a1a1a"
       id="path13" />
    <path
       d="m 1196.89,177.39 c -9.99,0 -16.63,-4.407 -16.68,-14.001 h 5.97 c 0.11,6.861 4.79,8.925 10.71,8.925 5.97,0 9.26,-2.287 9.26,-6.638 0,-3.514 -2.35,-5.132 -8.98,-6.582 l -3.41,-0.725 c -7.19,-1.45 -12.38,-4.518 -12.38,-11.714 0,-6.47 5.24,-10.765 14.06,-10.765 11.43,0 15.62,5.633 15.78,12.55 h -5.91 c -0.33,-4.685 -2.62,-7.474 -9.82,-7.474 -5.35,0 -8.03,2.175 -8.03,5.578 0,3.514 1.84,5.187 8.65,6.693 l 3.45,0.725 c 9.26,1.953 12.78,5.522 12.78,11.547 0,7.362 -5.75,11.881 -15.45,11.881 z"
       fill="#1a1a1a"
       id="path14" />
    <path
       d="m 1455.74,101.807 3.35,-9.8734 h 5.91 l -11.71,32.4084 c -2.01,5.745 -5.02,7.474 -10.66,7.474 -1.11,0 -2.06,-0.056 -2.9,-0.112 v -4.518 h 2.79 c 2.79,0 4.18,-1.227 5.02,-3.458 0.28,-0.725 0.5,-1.45 0.78,-2.231 l -10.65,-29.5634 h 6.08 l 3.34,9.8734 c 1.51,4.573 2.96,9.203 4.3,13.777 1.39,-4.574 2.84,-9.204 4.35,-13.777 z"
       fill="#1a1a1a"
       id="path15" />
    <path
       d="M 1429.19,96.0079 V 91.936 h 5.36 v 27.722 c 0,7.531 -4.52,12.662 -13.72,12.662 -7.81,0 -12.16,-3.848 -12.72,-9.594 h 5.58 c 0.44,3.403 2.95,5.076 7.19,5.076 5.25,0 8.09,-2.733 8.09,-8.032 v -3.179 c -2.06,2.844 -5.19,4.462 -9.26,4.462 -7.97,0 -13.22,-5.913 -13.22,-14.893 0,-9.0365 5.19,-14.8934 13.17,-14.8934 4.24,0 7.47,1.7849 9.53,4.7413 z m -8.47,20.2481 c 5.13,0 8.42,-3.682 8.42,-10.096 0,-6.4149 -3.29,-10.0964 -8.42,-10.0964 -5.14,0 -8.43,3.9046 -8.43,10.0964 0,6.247 3.29,10.096 8.43,10.096 z"
       fill="#1a1a1a"
       id="path16" />
    <path
       d="m 1388.69,121.388 c -8.43,0 -14.28,-5.857 -14.28,-15.061 0,-9.2035 5.85,-15.0604 14.28,-15.0604 8.36,0 14.22,5.8569 14.22,15.0604 0,9.204 -5.86,15.061 -14.22,15.061 z m 0,-4.797 c 5.07,0 8.42,-3.682 8.42,-10.264 0,-6.5819 -3.35,-10.2634 -8.42,-10.2634 -5.13,0 -8.48,3.6815 -8.48,10.2634 0,6.582 3.35,10.264 8.48,10.264 z"
       fill="#1a1a1a"
       id="path17" />
    <path
       d="m 1369.5,120.715 h -5.57 V 81 h 5.57 z"
       fill="#1a1a1a"
       id="path18" />
    <path
       d="m 1344.78,121.388 c -8.42,0 -14.28,-5.857 -14.28,-15.061 0,-9.2035 5.86,-15.0604 14.28,-15.0604 8.37,0 14.23,5.8569 14.23,15.0604 0,9.204 -5.86,15.061 -14.23,15.061 z m 0,-4.797 c 5.08,0 8.43,-3.682 8.43,-10.264 0,-6.5819 -3.35,-10.2634 -8.43,-10.2634 -5.13,0 -8.48,3.6815 -8.48,10.2634 0,6.582 3.35,10.264 8.48,10.264 z"
       fill="#1a1a1a"
       id="path19" />
    <path
       d="m 1315.46,91.2666 c 6.24,0 10.09,3.5699 10.09,10.1514 v 19.3 h -5.58 v -18.519 c 0,-4.1273 -2.17,-6.0238 -6.08,-6.0238 -3.4,0 -7.25,2.5101 -7.25,8.3108 v 16.232 h -5.57 V 91.936 h 5.35 v 4.295 c 1.9,-2.8448 4.96,-4.9644 9.04,-4.9644 z"
       fill="#1a1a1a"
       id="path20" />
    <path
       d="m 1284.68,91.2634 c 6.25,0 10.1,3.5699 10.1,10.1516 v 19.3 h -5.58 v -18.519 c 0,-4.1275 -2.18,-6.024 -6.08,-6.024 -3.41,0 -7.25,2.5101 -7.25,8.311 v 16.232 h -5.58 V 81 h 5.58 v 14.8931 c 1.89,-2.6774 4.9,-4.6297 8.81,-4.6297 z"
       fill="#1a1a1a"
       id="path21" />
    <path
       d="m 1253.04,121.388 c -8.15,0 -13.72,-5.857 -13.72,-15.061 0,-9.2035 5.46,-15.0604 13.72,-15.0604 7.14,0 11.93,4.1835 12.83,10.7094 h -5.69 c -0.78,-4.0159 -3.74,-5.8566 -7.14,-5.8566 -4.58,0 -7.92,3.2352 -7.92,10.2076 0,6.973 3.46,10.208 7.92,10.208 3.46,0 6.52,-1.897 7.19,-6.08 h 5.69 c -0.89,6.805 -6.02,10.933 -12.88,10.933 z"
       fill="#1a1a1a"
       id="path22" />
    <path
       d="m 1222.15,121.388 c -8.14,0 -13.77,-5.802 -13.77,-15.061 0,-9.0362 5.46,-15.0604 13.66,-15.0604 8.7,0 13.67,6.6378 13.67,15.2834 v 1.618 h -21.7 c 0.5,5.857 3.68,8.534 8.26,8.534 3.73,0 6.13,-1.896 7.14,-4.797 h 5.57 c -1.39,5.578 -5.91,9.483 -12.83,9.483 z m -8.03,-17.627 h 15.84 c -0.5,-4.4621 -3.23,-7.8089 -7.92,-7.8089 -4.18,0 -7.25,2.5658 -7.92,7.8089 z"
       fill="#1a1a1a"
       id="path23" />
    <path
       d="m 1179.65,81 h 32.41 v 5.3548 h -13.16 v 34.3602 h -6.08 V 86.3548 h -13.17 z"
       fill="#1a1a1a"
       id="path24" />
  </g>
</svg>

<svg width="1519" height="200" viewBox="0 0 1519 200" fill="none" xmlns="http://www.w3.org/2000/svg">
<path d="M29.8131 198.092C24.3771 198.092 19.3659 196.727 14.7792 193.999C10.1926 191.088 6.54016 187.268 3.82216 182.539C1.27403 177.628 0 172.261 0 166.441C0 160.802 1.27403 155.526 3.82216 150.615C6.54016 145.704 10.1926 141.793 14.7792 138.882C19.3659 135.972 24.3771 134.517 29.8131 134.517C35.2491 134.517 40.2604 135.972 44.847 138.882C49.4336 141.793 53.086 145.704 55.804 150.615C58.522 155.526 59.881 160.802 59.881 166.441C59.881 172.08 58.522 177.355 55.804 182.266C53.086 187.177 49.4336 191.088 44.847 193.999C40.2604 196.727 35.2491 198.092 29.8131 198.092Z" fill="#1A1A1A"/>
<path d="M79.2263 194.27V53.4782H131.972L133.247 71.4865C144.798 56.7524 160.936 49.3854 181.661 49.3854C193.213 49.3854 202.98 51.3863 210.964 55.3882C219.118 59.39 225.659 65.3928 230.585 73.3964C236.7 65.5747 244.175 59.6628 253.009 55.661C262.012 51.4773 272.204 49.3854 283.586 49.3854C294.798 49.3854 304.82 51.3863 313.654 55.3882C322.487 59.39 329.367 65.3928 334.294 73.3964C339.39 81.2182 341.938 90.6771 341.938 101.773V194.27H285.879V110.232C285.879 103.319 283.841 97.9532 279.764 94.1332C275.857 90.3133 270.845 88.4033 264.73 88.4033C259.973 88.4033 255.557 89.5857 251.48 91.9505C247.403 94.3152 244.175 97.6803 241.797 102.046C239.588 106.23 238.484 111.05 238.484 116.507V194.27H182.425V110.232C182.425 106.23 181.491 102.592 179.622 99.3175C177.924 95.8613 175.545 93.2237 172.488 91.4047C169.43 89.4038 165.948 88.4033 162.04 88.4033C156.944 88.4033 152.358 89.5857 148.281 91.9505C144.204 94.3152 140.976 97.5894 138.598 101.773C136.389 105.957 135.285 110.868 135.285 116.507V194.27H79.2263Z" fill="#1A1A1A"/>
<path d="M449.226 199.454C432.748 199.454 417.629 196.543 403.869 190.723C390.109 184.72 379.153 176.079 370.999 164.801C362.845 153.524 358.768 140.154 358.768 124.692C358.768 108.867 362.845 95.224 370.999 83.7642C379.153 72.3044 390.109 63.6641 403.869 57.8432C417.629 51.8404 432.748 48.839 449.226 48.839C465.874 48.839 481.077 51.8404 494.837 57.8432C508.597 63.846 519.469 72.5773 527.453 84.0371C535.607 95.4969 539.684 109.049 539.684 124.692C539.684 139.972 535.523 153.342 527.199 164.801C519.045 176.079 508.088 184.72 494.328 190.723C480.568 196.543 465.534 199.454 449.226 199.454ZM448.971 160.436C455.087 160.436 460.777 158.799 466.044 155.524C471.31 152.25 475.472 147.885 478.529 142.428C481.587 136.789 483.116 130.695 483.116 124.146C483.116 117.78 481.587 111.777 478.529 106.138C475.472 100.499 471.31 96.0426 466.044 92.7683C460.777 89.4941 455.087 87.857 448.971 87.857C442.856 87.857 437.165 89.4941 431.899 92.7683C426.802 96.0426 422.725 100.499 419.668 106.138C416.78 111.595 415.336 117.598 415.336 124.146C415.336 130.695 416.78 136.789 419.668 142.428C422.725 147.885 426.802 152.25 431.899 155.524C437.165 158.799 442.856 160.436 448.971 160.436Z" fill="#1A1A1A"/>
<path d="M556.502 194.27V53.4779H608.993L611.032 72.8505C622.583 57.3888 639.401 49.658 661.485 49.658C672.866 49.658 682.974 51.6589 691.807 55.6607C700.811 59.4806 707.861 65.3015 712.957 73.1233C718.223 80.7632 720.856 90.0402 720.856 100.954V194.27H664.797V112.141C664.797 105.229 662.759 99.7719 658.682 95.7701C654.605 91.7682 648.999 89.7673 641.864 89.7673C636.258 89.7673 631.247 90.9497 626.83 93.3144C622.413 95.6792 618.931 99.0443 616.383 103.41C613.835 107.776 612.561 113.051 612.561 119.235V194.27H556.502Z" fill="#1A1A1A"/>
<path d="M913.572 53.4791L849.36 110.233L919.178 194.271H850.889L823.369 156.345L811.393 139.428L797.888 150.342V194.271H741.829V0H797.888V71.2146L797.378 100.956L820.566 77.4902L846.047 53.4791H913.572Z" fill="#1A1A1A"/>
<path d="M991.46 200C942.196 200 915.609 183.993 911.702 151.978L964.96 150.614C966.149 156.434 968.867 160.8 973.114 163.711C977.529 166.439 984.495 167.803 994.008 167.803C1003.18 167.803 1009.98 166.712 1014.39 164.529C1018.81 162.164 1021.02 158.799 1021.02 154.434C1021.02 150.795 1019.49 148.067 1016.43 146.248C1013.54 144.247 1009.13 142.974 1003.18 142.428L973.114 139.427C953.408 137.426 938.882 132.878 929.539 125.784C920.366 118.508 915.781 108.594 915.781 96.0431C915.781 81.1271 921.981 69.4854 934.382 61.1179C946.953 52.5685 965.809 48.2938 990.95 48.2938C1014.22 48.2938 1032.23 52.0228 1044.97 59.4808C1057.88 66.7568 1065.53 77.58 1067.9 91.9503L1015.92 93.3145C1014.9 88.2213 1012.35 84.5832 1008.28 82.4004C1004.37 80.2176 997.915 79.1262 988.912 79.1262C981.607 79.1262 975.83 80.1266 971.583 82.1275C967.506 83.9465 965.469 86.6751 965.469 90.3131C965.469 93.7693 966.998 96.4068 970.056 98.2259C973.114 99.863 977.953 101.045 984.58 101.773L1013.88 104.501C1053.29 108.14 1073 122.874 1073 148.704C1073 166.348 1066.04 179.354 1052.11 187.722C1038.17 195.907 1017.96 200 991.46 200Z" fill="#1A1A1A"/>
<rect x="1111.04" y="59" width="406" height="140" rx="70" stroke="#1A1A1A" stroke-width="2"/>
<path d="M1380.52 177.223C1372.82 177.223 1368.3 174.211 1367.91 167.35H1373.49C1373.94 171.366 1375.89 172.816 1380.57 172.816C1385.09 172.816 1386.93 171.366 1386.93 168.8C1386.93 166.513 1385.54 165.397 1380.8 164.561L1377.84 164.003C1371.65 162.887 1368.69 160.098 1368.69 155.413C1368.69 150.337 1372.71 147.046 1379.79 147.046C1387.99 147.046 1391.78 150.616 1391.95 156.696H1386.54C1386.32 152.568 1383.86 151.397 1379.79 151.397C1376.17 151.397 1374.21 152.847 1374.21 155.245C1374.21 157.7 1376.17 158.648 1379.57 159.317L1382.58 159.819C1389.61 161.158 1392.57 163.612 1392.57 168.409C1392.57 174.043 1388.05 177.223 1380.52 177.223Z" fill="#1A1A1A"/>
<path d="M1351.53 177.167C1343.38 177.167 1337.75 171.366 1337.75 162.106C1337.75 153.07 1343.21 147.046 1351.41 147.046C1360.12 147.046 1365.08 153.684 1365.08 162.329V163.947H1343.38C1343.88 169.804 1347.06 172.481 1351.64 172.481C1355.37 172.481 1357.77 170.585 1358.78 167.684H1364.35C1362.96 173.262 1358.44 177.167 1351.53 177.167ZM1343.49 159.541H1359.33C1358.83 155.078 1356.1 151.731 1351.41 151.731C1347.23 151.731 1344.16 154.297 1343.49 159.541Z" fill="#1A1A1A"/>
<path d="M1321.78 177.167C1313.64 177.167 1308.06 171.31 1308.06 162.106C1308.06 152.903 1313.53 147.046 1321.78 147.046C1328.92 147.046 1333.72 151.229 1334.61 157.756H1328.92C1328.14 153.739 1325.19 151.899 1321.78 151.899C1317.21 151.899 1313.86 155.134 1313.86 162.106C1313.86 169.079 1317.32 172.314 1321.78 172.314C1325.24 172.314 1328.31 170.418 1328.98 166.234H1334.67C1333.78 173.039 1328.64 177.167 1321.78 177.167Z" fill="#1A1A1A"/>
<path d="M1303.21 144.031H1297.47V138.118H1303.21V144.031ZM1303.16 176.494H1297.58V147.712H1303.16V176.494Z" fill="#1A1A1A"/>
<path d="M1284.76 158.254L1288.61 147.712H1294.52L1283.48 176.494H1277.29L1266.3 147.712H1272.32L1276.23 158.254C1277.62 162.382 1279.18 166.9 1280.47 171.084C1281.81 166.9 1283.37 162.382 1284.76 158.254Z" fill="#1A1A1A"/>
<path d="M1262.89 147.262C1263.39 147.262 1263.89 147.262 1264.51 147.317V152.617H1263.11C1257.59 152.617 1254.13 155.35 1254.13 160.872V176.49H1248.55V147.708H1253.91V152.84C1255.47 149.716 1258.32 147.262 1262.89 147.262Z" fill="#1A1A1A"/>
<path d="M1230.05 177.167C1221.91 177.167 1216.28 171.366 1216.28 162.106C1216.28 153.07 1221.74 147.046 1229.94 147.046C1238.64 147.046 1243.61 153.684 1243.61 162.329V163.947H1221.91C1222.41 169.804 1225.59 172.481 1230.16 172.481C1233.9 172.481 1236.3 170.585 1237.3 167.684H1242.88C1241.49 173.262 1236.97 177.167 1230.05 177.167ZM1222.02 159.541H1237.86C1237.36 155.078 1234.63 151.731 1229.94 151.731C1225.76 151.731 1222.69 154.297 1222.02 159.541Z" fill="#1A1A1A"/>
<path d="M1196.89 177.39C1186.9 177.39 1180.26 172.983 1180.21 163.389H1186.18C1186.29 170.25 1190.97 172.314 1196.89 172.314C1202.86 172.314 1206.15 170.027 1206.15 165.676C1206.15 162.162 1203.8 160.544 1197.17 159.094L1193.76 158.369C1186.57 156.919 1181.38 153.851 1181.38 146.655C1181.38 140.185 1186.62 135.89 1195.44 135.89C1206.87 135.89 1211.06 141.523 1211.22 148.44H1205.31C1204.98 143.755 1202.69 140.966 1195.49 140.966C1190.14 140.966 1187.46 143.141 1187.46 146.544C1187.46 150.058 1189.3 151.731 1196.11 153.237L1199.56 153.962C1208.82 155.915 1212.34 159.484 1212.34 165.509C1212.34 172.871 1206.59 177.39 1196.89 177.39Z" fill="#1A1A1A"/>
<path d="M1455.74 101.807L1459.09 91.9336H1465L1453.29 124.342C1451.28 130.087 1448.27 131.816 1442.63 131.816C1441.52 131.816 1440.57 131.76 1439.73 131.704V127.186H1442.52C1445.31 127.186 1446.7 125.959 1447.54 123.728C1447.82 123.003 1448.04 122.278 1448.32 121.497L1437.67 91.9336H1443.75L1447.09 101.807C1448.6 106.38 1450.05 111.01 1451.39 115.584C1452.78 111.01 1454.23 106.38 1455.74 101.807Z" fill="#1A1A1A"/>
<path d="M1429.19 96.0079V91.936H1434.55V119.658C1434.55 127.189 1430.03 132.32 1420.83 132.32C1413.02 132.32 1408.67 128.472 1408.11 122.726H1413.69C1414.13 126.129 1416.64 127.802 1420.88 127.802C1426.13 127.802 1428.97 125.069 1428.97 119.77V116.591C1426.91 119.435 1423.78 121.053 1419.71 121.053C1411.74 121.053 1406.49 115.14 1406.49 106.16C1406.49 97.1235 1411.68 91.2666 1419.66 91.2666C1423.9 91.2666 1427.13 93.0515 1429.19 96.0079ZM1420.72 116.256C1425.85 116.256 1429.14 112.574 1429.14 106.16C1429.14 99.7451 1425.85 96.0636 1420.72 96.0636C1415.58 96.0636 1412.29 99.9682 1412.29 106.16C1412.29 112.407 1415.58 116.256 1420.72 116.256Z" fill="#1A1A1A"/>
<path d="M1388.69 121.388C1380.26 121.388 1374.41 115.531 1374.41 106.327C1374.41 97.1235 1380.26 91.2666 1388.69 91.2666C1397.05 91.2666 1402.91 97.1235 1402.91 106.327C1402.91 115.531 1397.05 121.388 1388.69 121.388ZM1388.69 116.591C1393.76 116.591 1397.11 112.909 1397.11 106.327C1397.11 99.7451 1393.76 96.0636 1388.69 96.0636C1383.56 96.0636 1380.21 99.7451 1380.21 106.327C1380.21 112.909 1383.56 116.591 1388.69 116.591Z" fill="#1A1A1A"/>
<path d="M1369.5 120.715H1363.93V81H1369.5V120.715Z" fill="#1A1A1A"/>
<path d="M1344.78 121.388C1336.36 121.388 1330.5 115.531 1330.5 106.327C1330.5 97.1235 1336.36 91.2666 1344.78 91.2666C1353.15 91.2666 1359.01 97.1235 1359.01 106.327C1359.01 115.531 1353.15 121.388 1344.78 121.388ZM1344.78 116.591C1349.86 116.591 1353.21 112.909 1353.21 106.327C1353.21 99.7451 1349.86 96.0636 1344.78 96.0636C1339.65 96.0636 1336.3 99.7451 1336.3 106.327C1336.3 112.909 1339.65 116.591 1344.78 116.591Z" fill="#1A1A1A"/>
<path d="M1315.46 91.2666C1321.7 91.2666 1325.55 94.8365 1325.55 101.418V120.718H1319.97V102.199C1319.97 98.0717 1317.8 96.1752 1313.89 96.1752C1310.49 96.1752 1306.64 98.6853 1306.64 104.486V120.718H1301.07V91.936H1306.42V96.231C1308.32 93.3862 1311.38 91.2666 1315.46 91.2666Z" fill="#1A1A1A"/>
<path d="M1284.68 91.2634C1290.93 91.2634 1294.78 94.8333 1294.78 101.415V120.715H1289.2V102.196C1289.2 98.0685 1287.02 96.172 1283.12 96.172C1279.71 96.172 1275.87 98.6821 1275.87 104.483V120.715H1270.29V81H1275.87V95.8931C1277.76 93.2157 1280.77 91.2634 1284.68 91.2634Z" fill="#1A1A1A"/>
<path d="M1253.04 121.388C1244.89 121.388 1239.32 115.531 1239.32 106.327C1239.32 97.1235 1244.78 91.2666 1253.04 91.2666C1260.18 91.2666 1264.97 95.4501 1265.87 101.976H1260.18C1259.4 97.9601 1256.44 96.1194 1253.04 96.1194C1248.46 96.1194 1245.12 99.3546 1245.12 106.327C1245.12 113.3 1248.58 116.535 1253.04 116.535C1256.5 116.535 1259.56 114.638 1260.23 110.455H1265.92C1265.03 117.26 1259.9 121.388 1253.04 121.388Z" fill="#1A1A1A"/>
<path d="M1222.15 121.388C1214.01 121.388 1208.38 115.586 1208.38 106.327C1208.38 97.2908 1213.84 91.2666 1222.04 91.2666C1230.74 91.2666 1235.71 97.9044 1235.71 106.55V108.168H1214.01C1214.51 114.025 1217.69 116.702 1222.27 116.702C1226 116.702 1228.4 114.806 1229.41 111.905H1234.98C1233.59 117.483 1229.07 121.388 1222.15 121.388ZM1214.12 103.761H1229.96C1229.46 99.2989 1226.73 95.9521 1222.04 95.9521C1217.86 95.9521 1214.79 98.5179 1214.12 103.761Z" fill="#1A1A1A"/>
<path d="M1179.65 81H1212.06V86.3548H1198.9V120.715H1192.82V86.3548H1179.65V81Z" fill="#1A1A1A"/>
</svg>
